dist/svgs/org-direct-message.svg

<svg xmlns="http://www.w3.org/2000/svg" viewBox="0 0 512 512"><path d="M395 139q23 0 40 16.5t17 40.5v191q0 24-17 41t-40 17H276l-61 62q-7 5-14 5-5 0-7-1-12-5-12-18v-48h-65q-23 0-40-17t-17-41V196q0-24 17-40.5t40-16.5h17v-17q0-25 9.5-47.5t26-39 39-26T256 0t47.5 9.5 39 26 26 39T378 122v17h17zm-222 0h166v-17q0-35-24-59.5T256 38t-59 24.5-24 59.5v17zm241 57q0-8-5.5-13.5T395 177H117q-8 0-13.5 5.5T98 196v191q0 8 5.5 14t13.5 6h84q19 0 19 19v20l35-34q4-5 13-5h127q8 0 13.5-6t5.5-14V196zm-249 74q9 0 15.5 6.5T187 293t-6.5 16.5T165 316q-10 0-16.5-6.5T142 293t6.5-16.5T165 270zm91 0q10 0 16.5 6.5T279 293t-6.5 16.5T256 316t-16.5-6.5T233 293t6.5-16.5T256 270zm91 0q10 0 16.5 6.5T370 293t-6.5 16.5T347 316q-9 0-15.5-6.5T325 293t6.5-16.5T347 270z"/></svg>

<?xml version="1.0" encoding="UTF-8" standalone="no"?><svg   xmlns:svg="http://www.w3.org/2000/svg"   xmlns="http://www.w3.org/2000/svg"   version="1.1"   width="512"   height="512"   viewBox="0 0 512 512">  <path     d="M395 139Q418 139 435 155.5T452 196V387Q452 411 435 428T395 445H276L215 507Q208 512 201 512Q196 512 194 511Q182 506 182 493V445H117Q94 445 77 428T60 387V196Q60 172 77 155.5T117 139H134V122Q134 97 143.5 74.5T169.5 35.5T208.5 9.5T256 0T303.5 9.5T342.5 35.5T368.5 74.5T378 122V139H395zM173 139H339V122Q339 87 315 62.5T256 38T197 62.5T173 122V139zM414 196Q414 188 408.5 182.5T395 177H117Q109 177 103.5 182.5T98 196V387Q98 395 103.5 401T117 407H201Q220 407 220 426V446L255 412Q259 407 268 407H395Q403 407 408.5 401T414 387V196zM165 270Q174 270 180.5 276.5T187 293T180.5 309.5T165 316Q155 316 148.5 309.5T142 293T148.5 276.5T165 270zM256 270Q266 270 272.5 276.5T279 293T272.5 309.5T256 316T239.5 309.5T233 293T239.5 276.5T256 270zM347 270Q357 270 363.5 276.5T370 293T363.5 309.5T347 316Q338 316 331.5 309.5T325 293T331.5 276.5T347 270z"     id="org-direct-message" /></svg>
